X:1
T:Dr. Madan
T:Feversham
%%score 1 2 3
L:1/8
M:2/4
K:A
V:1 treble nm="Soprano" snm="S."
V:2 treble-8 nm="Tenor" snm="T."
V:3 bass nm="Bass" snm="B."
V:1
 z2 E>E | A2 ec | A2 ce | d2 cB | A2 AE | C2 cA | (cd/e/) dc | B2 BB | B2 BB | B2 AG | (AB/c/) BA | %11
 G2 AE | F2 AG | (BA) dc | (cB) AE | F2 f(e/d/) | c2 B>A | A4 |] %18
V:2
 z2 cc | e2 cA | c2 Ac | B2 AG | A2 eG | A2 ec | (AB/c/) BA | G2 GG | G2 GG | G2 FE | (FG/A/) GF | %11
 E2 ee | e2 dd | (dc) BA | (AG) ec | A2 d(c/B/) | A2 G>A | A4 |] %18
V:3
 A,,2 A,A, | C2 A,A, | F,2 C,C, | D,2 E,E, | A,,2 C,E, | A,2 A,A, | C,2 D,D, | E,2 E,E, | %8
 [E,E]2 E,F, | G,2 CC | A,2 B,B, | E,2 C,C, | D,2 E,E, | F,2 G,A, | E,2 CC | D2 D,D, | E,2 E,>E, | %17
 A,4 |] %18

